X:1
T:D Major James P. Carrell, 1821
T:Isaac Watts, 1717 (Psalm 17, Part 2)          88. 88. (L. M.)
T:New Jerusalem
T:Transcribed from Songs of Zion, 1821
%%score [ 1 2 3 4 ]
L:1/8
Q:1/4=90
M:2/2
K:D
V:1 treble nm="Tr." snm="Tr."
V:2 treble nm="C." snm="C."
V:3 treble-8 nm="T." snm="T."
V:4 bass nm="B." snm="B."
V:1
 A2 | AF AB d3 B | A2 G2 F3 d | c2 e2 f2 dc | B2 A2 A4 | z2 c2 d3 d | G2 G2 A2 dB | c4 z2 de |: %8
 f2 e2 d3 f | ed cB A3 z | G4 A2 A2 | B3 A d2 c2 |1 d6 de :|2 d8 || z4 z2 c2 |: d3 e f2 f2 | %16
 e2 ed d3 A | g2 e2 f2 d2 | B2 A2 A3 A | F3 A d2 d2 | c3 e A2 A2 | B2 A2 d2 ed | c4 c4 |1 d6 c2 :|2 %24
 d8 ||[M:6/4] z4 z2 z4 A2 | F4 F2 B4 B2 | B4 B2 A4 A2 | A4 G2 F4 B2 | (e2 d2) e2 d6 |: %30
[M:4/4] d4 f2 f2 | f2 f2 d2 d2 | e4 e4 | d2 c2 B4 | A4 d2 d2 | c6 A2 | d2 B2 AB c2 | d4 c4 | d8 :| %39
V:2
 F2 | F2 F2 F3 E | D2 D2 D3 D | C2 E2 DE F2 | F2 E2 D4 | z2 F2 D3 D | G2 G2 FE DE | F4 z2 D2 |: %8
w: This|life's a dream, an|emp- ty show; But|the bright world * to|which I go|Hath joys sub-|stan- tial and * sin- *|cere: When|
 D2 E2 F3 F | G2 E2 E3 z | D4 D2 AG | F3 E D2 C2 |1 D6 D2 :|2 D8 || z4 z2 E2 |: G3 E F2 A2 | %16
w: shall I wake and|find me there?|When shall I *|wake and find me|there? When|there?|O|glo- rious hour! O|
 E2 G2 F3 F | D2 E2 F2 G2 | F2 E2 E3 A | A3 F G2 F2 | E3 E D2 D2 | D2 E2 D2 EG | F4 E4 |1 F6 E2 :|2 %24
w: blest a- bode! I|shall be near and|like my God, And|flesh and sin no|more con- trol The|sa- cred plea- sures *|of the|soul. O|
 F8 ||[M:6/4] z4 z2 z4 F2 | F4 F2 D4 D2 | B,4 B,2 E4 E2 | D4 D2 C4 C2 | (E2 F2) G2 F6 |: %30
w: soul.|My|flesh shall slum- ber|in the ground Till|the last trum- pet's|joy- * ful sound;|
[M:4/4] F4 F2 F2 | D2 D2 G2 F2 | E4 E4 | F2 AG F4 | F4 D2 D2 | E6 E2 | G2 G2 F2 E2 | D4 E4 | F8 :| %39
w: Then burst the|chains with sweet sur-|prise, And|in my * Sa-|vior's im- age|rise, And|in my Sa- vior's|im- age|rise.|
V:3
 d2 | AB AG F3 E | D2 B2 A3 G | F2 E2 F2 de | f2 e2 d4 | z2 fe d3 A | B2 B2 A2 BA | F4 z2 DE |: %8
 F2 FG A3 d | B2 AF E3 z | d4 A2 de | f>gfe d2 c2 |1 d6 DE :|2 d8 || z4 z2 AB/c/ |: d3 c B2 A2 | %16
 B2 B>^d A3 F | G2 E2 F2 g2 | f2 e2 e3 c | d3 c B2 d2 | e3 A A2 fe | d2 A2 B2 AG | F4 E4 |1 %23
 D6 AB/c/ :|2 D8 ||[M:6/4] z4 z2 z4 F2 | A4 G2 F4 F2 | E4 E2 E4 E2 | F4 d2 c4 B2 | (A2 B2) c2 d6 |: %30
[M:4/4] f4 d2 d2 | d2 A2 B2 Bc | A4 A4 | d2 de f4 | c4 dc B2 | e6 c2 | d2 e2 f2 eg | f4 e4 | d8 :| %39
V:4
 D,2 | D,2 A,,2 D,3 E, | F,2 E,2 D,3 D, | A,2 A,>G, F,2 D,2 | B,,2 A,,2 D,4 | z2 F,2 G,3 F, | %6
 E,2 E,2 D,E, F,G, | A,4 z2 A,2 |: F,2 F,E, D,3 B,, | E,2 E,2 A,,3 z | G,4 F,2 D,2 | %11
 B,,3 F, G,2 A,2 |1 D,6 A,2 :|2 D,8 || z4 z2 F,2 |: G,3 E, F,2 D,2 | E,D, C,2 D,3 F, | %17
 G,2 B,2 A,2 G,2 | F,2 A,2 A,3 A,, | D,3 D, D,2 D,2 | E,3 E, F,2 D,2 | G,2 A,2 C2 F,G, | %22
 A,4 A,,4 |1 D,6 F,2 :|2 D,8 ||[M:6/4] z4 z2 z4 D,2 | D,4 D,2 B,,4 B,,2 | E,4 E,2 A,,4 A,,2 | %28
 A,4 D,2 F,4 F,2 | (E,2 D,2) C,2 D,6 |:[M:4/4] D,4 D,2 D,2 | G,2 F,2 E,2 D,2 | A,,4 A,,4 | %33
 B,,2 E,2 D,4 | F,4 A,2 B,2 | A,6 A,2 | G,2 E,2 F,2 B,G, | A,4 A,,4 | D,8 :| %39

